X:1
%
T:Birnan Hall (Dunkeld)
C:Alexander Walker
M:6/8
L:1/8
R:Air
B:Walker - Collection of Strathspeys, Reels, Marches etc. (1866, p. 34)
Z:AK/Fiddler's Companion
F: http://digital.nls.uk/special-collections-of-printed-music/archive/105875488?mode=zoom
K:D
A/G/|FGA EFG|FDD D2d|cde Bcd|cAA A2c|
dcB AGF|GAd e2d|FGA CDE|A,DD D2:|
f|d2A F2A|DEF A2F|B,2B B2A|BEE E2e|
d2A F2A|DEF A2F|GAB EFG|FDD D2f|
a2f g2e|f2d e2c|d2A B2F|GEE E2 A/G/|
FGA GAB|ABc d3|cBA GFE|FDD D2||

